X:15715
T:Something with "Galway" in the name.
S:Irtrad, 1-98, Sean O'Malley
M:6/8
L:1/8
K:D
AF2 AA2 | BA2 AF2 | EF2 AA2 | BAF2 F2 |
EF2 BB2 | cd3 c2 | BA2 B/B/c2 | edd2 Z2 |
f/f/f2 fe2 | de2 ed2 | cB2 cd2 | BAF2 z2 |
AF2 AA2 | BA2 FF2 | EFF BA2 | cBB2 d2 |
ef3 e2 | de3 d2 | cBBBB2 | AB4z |]


